X: 132
T: No_58_Song_of_the_Warriors.krn
%%abc-version 2.0
%%abcx-abcm2ps-target-version 5.9.1 (29 Sep 2008)
%%abc-creator hum2abc beta
%%abcx-conversion-date 2020/08/10 18:54:57
%%gracespace 0 6 6
%%humdrum-veritas 1061597343
%%humdrum-veritas-data 3936748234
%%linebreak <none>
%%barnumbers 0
L: 1/4
M: 2/4
%%staves {1 2}
V: 1 clef=bass
V: 2 clef=bass
K: Gb
[V:1] [K:clef=bass][M:2/4]E2 | 
[V:2] [K:clef=bass][M:2/4]!accent!G,,!accent!G,, | 
[V:1] ED//D3// ||  
[V:2] !accent!G,,!accent!G,, ||  
[V:1] [M:3/4]D2-D/B,/ ||  
[V:2] [M:3/4]z3 ||  
[V:1] [M:2/4]E2 | 
[V:2] [M:2/4]z2 | 
[V:1] ED//D3// ||  
[V:2] z2 ||  
[V:1] [M:3/4]D3 ]|:  
[V:2] [M:3/4]z3 ]|:  
[V:1] [M:2/4]D2 | 
[V:2] [M:2/4]z2 | 
[V:1] DA, | 
[V:2] z2 | 
[V:1] G,G,/G,/ | 
[V:2] z2 | 
[V:1] G,E, | 
[V:2] z2 | 
[V:1] D,D,/D,/ | 
[V:2] z2 | 
[V:1] E,D,/D,/ | 
[V:2] z2 | 
[V:1] D,2- | 
[V:2] z2 | 
[V:1] D,2 :|]  
[V:2] z2 :|]  


